X:1
T:Johann Joseph Fux
T:Gradus ad Parnassum
T:Exercitii I
%%score [ 1 2 ]
L:1/8
Q:1/2=120
M:2/2
K:C
V:1 alto1 nm="Piano,  "
V:2 alto nm="Piano"
V:1
"^1" A8 | A8 | G8 | A8 | B8 | c8 | c8 | B8 | d8 | ^c8 | d8 |][M:2/2][K:alto]"^2" D8 | F8 | E8 | %14
 D8 | G8 | F8 | A8 | G8 | F8 | E8 | D8 |][M:2/2][K:alto1]"^3" B8 | c8 | F8 | G8 | A8 | c8 | B8 | %29
 e8 | d8 | e8 |][M:2/2][K:alto]"^4" E8 | C8 | D8 | C8 | A,8 | A8 | G8 | E8 | F8 | E8 |] %42
[M:2/2][K:alto]"^5" F8 | E8 | C8 | F8 | F8 | G8 | A8 | G8 | C8 | F8 | E8 | F8 |] %54
[M:2/2][K:tenor]"^6" F,8 | G,8 | A,8 | F,8 | D,8 | E,8 | F,8 | C8 | A,8 | F,8 | G,8 | F,8 |] %66
[M:2/2][K:alto1]"^7" G8 | E8 | D8 | G8 | G8 | G8 | A8 | B8 | G8 | c8 | A8 | G8 | ^F8 | G8 |] %80
[M:2/2][K:alto]"^8" G,8 | C8 | B,8 | G,8 | C8 | E8 | D8 | G8 | E8 | C8 | D8 | B,8 | A,8 | G,8 |] %94
[M:2/2][K:alto1]"^9" A8 | E8 | G8 | F8 | E8 | c8 | A8 | B8 | B8 | A8 | ^G8 | A8 |] %106
[M:2/2][K:alto]"^10" A,8 | C8 | B,8 | D8 | C8 | E8 | F8 | E8 | D8 | C8 | B,8 | A,8 |] %118
[M:2/2][K:alto1]"^11" A4 d4 | A4 B4 | c4 G4 | A4 d4 | B4 c4 | d4 A4 | c4 d4 | e4 B4 | d4 A4 | %127
 B4 ^c4 | d8 |][M:2/2][K:alto]"^12" D8 | F8 | E8 | D8 | G8 | F8 | A8 | G8 | F8 | E8 | D8 |] %140
[M:2/2][K:alto1]"^13" z4 B4 | c4 B4 | A4 B4 | c4 G4 | A4 B4 | c4 A4 | B4 d4 | e4 d4 | c4 d4 | e8 |] %150
[M:2/2][K:alto]"^14" E8 | C8 | D8 | C8 | A,8 | A8 | G8 | E8 | F8 | E8 |] %160
[M:2/2][K:alto]"^15" z4 F4 | E4 D4 | C4 _B,4 | A,4 G,4 | F,4 A,4 | C4 _B,4 | A,4 A4 | G4 E4 | %168
 F4 G4 | A4 F4 | D4 E4 | F8 |][M:2/2][K:tenor]"^16" F,8 | G,8 | A,8 | F,8 | D,8 | E,8 | F,8 | C8 | %180
 A,8 | F,8 | G,8 | F,8 |][M:2/2][K:alto1]"^17" z4 G4 | E4 F4 | G4 A4 | B4 A4 | G4 c4 | B4 c4 | %190
 d4 c4 | B4 A4 | G4 F4 | E4 c4 | B4 A4 | G4 D4 | E4 ^F4 | G8 |][M:2/2][K:alto]"^18" G,8 | C8 | %200
 B,8 | G,8 | C8 | E8 | D8 | G8 | E8 | C8 | D8 | B,8 | A,8 | G,8 |][M:2/2][K:alto1]"^19" z4 A4 | %213
 E4 F4 | G4 D4 | E4 e4 | c4 B4 | A4 F4 | G4 B4 | d4 A4 | c4 E4 | ^F4 ^G4 | A8 |] %223
[M:2/2][K:alto]"^20" A,8 | C8 | B,8 | D8 | C8 | E8 | F8 | E8 | D8 | C8 | B,8 | A,8 |] %235
[M:2/2][K:alto1]"^21" z4 G4 | c4 B4 | A4 d4 | B4 A4 | G4 B4 | c4 d4 | e4 d4 | c4 B4 | A4 B4 | %244
 c4 G4 | A4 B4 | c8 |][M:2/2][K:alto]"^22" C8 | E8 | F8 | G8 | E8 | A8 | G8 | E8 | F8 | E8 | D8 | %258
 C8 |][M:2/2][K:alto1]"^23" D2 E2 F2 G2 | A2 B2 c2 d2 | e2 d2 B2 c2 | d2 c2 _B2 c2 | _B2 c2 d2 e2 | %264
 f2 F2 A2 B2 | c2 A2 _B2 c2 | _B2 A2 G2 B2 | A2 D2 E2 F2 | G2 A2 B2 ^c2 | d8 |] %270
[M:2/2][K:alto]"^24" D8 | F8 | E8 | D8 | G8 | F8 | A8 | G8 | F8 | E8 | D8 |] %281
[M:2/2][K:alto1]"^25" B2 G2 A2 B2 | c2 B2 A2 G2 | F2 G2 A2 B2 | c2 E2 F2 G2 | A2 c2 e2 d2 | %286
 c2 B2 A2 c2 | B2 d2 B2 A2 | G2 B2 c2 B2 | A2 B2 c2 d2 | e8 |][M:2/2][K:alto]"^26" E8 | C8 | D8 | %294
 C8 | A,8 | A8 | G8 | E8 | F8 | E8 |][M:2/2]"^27" F2 E2 D2 C2 | B,2 D2 G2 F2 | E2 D2 C2 _B,2 | %304
 A,2 C2 D2 E2 | F2 D2 E2 F2 | G2 E2 F2 G2 | A2 G2 F2 A2 | G2 F2 E2 D2 | C2 E2 C2 E2 | F2 E2 D2 C2 | %311
 _B,2 C2 D2 E2 | F8 |][M:2/2][K:tenor]"^28" F,8 | G,8 | A,8 | F,8 | D,8 | E,8 | F,8 | C8 | A,8 | %322
 F,8 | G,8 | F,8 |][M:2/2][K:alto1]"^29" z4 A4- | A4 d4- | d4 c4- | c4 _B4- | B4 G4 | A4 c4- | %331
 c4 f4- | f4 e4- | e4 d4- | d4 ^c4 | d8 |][M:2/2][K:alto]"^30" D8 | F8 | E8 | D8 | G8 | F8 | A8 | %343
 G8 | F8 | E8 | D8 |][M:2/2][K:alto1]"^31" z4 e4- | e4 c4- | c4 B4 | c4 E4- | E4 F4- | F4 c4- | %353
 c4 B4- | B4 e4- | e4 d4 | e8 |][M:2/2][K:alto]"^32" E8 | C8 | D8 | C8 | A,8 | A8 | G8 | E8 | F8 | %366
 E8 |][M:2/2]"^33" z4 F4- | F4 E4- | E4 C4- | C4 F4- | F4 A4- | A4 G4- | G4 F4- | F4 E4- | E4 A4- | %376
 A4 F4- | F4 E4 | F8 |][M:2/2][K:tenor]"^34" F,8 | G,8 | A,8 | F,8 | D,8 | E,8 | F,8 | C8 | A,8 | %388
 F,8 | G,8 | F,8 |][M:2/2][K:alto1]"^35" z4 A4- | A2 D2 E2 F2 | G2 F2 E2 G2 | F2 D2 d4- | %395
 d2 c2 _B2 G2 | A2 B2 c4- | c4 f4- | f2 ed e4- | e2 A2 d4- | d4 ^c4 | d8 |] %402
[M:2/2][K:alto]"^36" D8 | F8 | E8 | D8 | G8 | F8 | A8 | G8 | F8 | E8 | D8 |] %413
[M:2/2][K:alto1]"^37" z4 e4- | e2 d2 c2 B2 | A2 G2 F2 D2 | E2 G2 c4- | c2 B2 A2 G2 | F4 c4- | %419
 c2 BA B2 A2 | G2 E2 e4- | e4 d4 | e8 |][M:2/2][K:alto]"^38" E8 | C8 | D8 | C8 | A,8 | A8 | G8 | %430
 E8 | F8 | E8 |][M:2/2]"^39" z4 F4- | F4 E2 D2 | C2 A,2 C4- | C2 A,2 D4- | D2 C2 _B,2 A,2 | %438
 G,4 C2 _B,2 | A,4 A4- | A4 G4 | A2 G2 F2 E2 | D2 C2 F4- | F4 E4 | F8 |][M:2/2][K:tenor]"^40" F,8 | %446
 G,8 | A,8 | F,8 | D,8 | E,8 | F,8 | C8 | A,8 | F,8 | G,8 | F,8 |][M:2/2][K:alto1]"^41" z4 G4- | %458
 G2 F2 E2 DC | D4 G2 A2 | B2 c2 d2 B2 | e2 d2 c4- | c2 B2 A2 G2 | A2 Bc d2 c2 | B2 G2 B4- | %465
 B2 A2 G4- | G2 F2 E2 G2 | ^F2 G2 A4- | A2 G2 G4- | G4 ^F4 | G8 |][M:2/2][K:alto]"^42" G,8 | C8 | %473
 B,8 | G,8 | C8 | E8 | D8 | G8 | E8 | C8 | D8 | B,8 | A,8 | G,8 |][M:2/2][K:alto1]"^43" z4 A4- | %486
 A4 G2 A2 | B2 G2 B4- | B4 A2 B2 | c2 G2 c4- | c2 BA B2 c2 | d2 A2 d4- | d2 c2 c4- | c2 BA B4- | %494
 B2 E2 A4- | A4 ^G4 | A8 |][M:2/2][K:alto]"^44" A,8 | C8 | B,8 | D8 | C8 | E8 | F8 | E8 | D8 | C8 | %507
 B,8 | A,8 |][M:2/2][K:alto1]"^45" z4 c4- | c4 B4 | A2 B2 c2 d2 | e4 d2 c2 | B2 A2 G4 | A4 d4- | %515
 d2 G2 c4- | c4 B4 | c8 |][M:2/2][K:alto]"^46" C8 | D8 | F8 | E8 | G8 | F8 | E8 | D8 | C8 |] %527
V:2
 D8 | F8 | E8 | D8 | G8 | F8 | A8 | G8 | F8 | E8 | D8 |][M:2/2][K:tenor] D,8 | D,8 | A,8 | F,8 | %15
 E,8 | D,8 | F,8 | C8 | D8 | ^C8 | D8 |][M:2/2][K:alto] E8 | C8 | D8 | C8 | A,8 | A8 | G8 | E8 | %30
 F8 | E8 |][M:2/2][K:tenor] E,8 | A,8 | D,8 | E,8 | F,8 | F,8 | C8 | C8 | D8 | E8 |][M:2/2] F,8 | %43
 G,8 | A,8 | F,8 | D,8 | E,8 | F,8 | C8 | A,8 | F,8 | G,8 | F,8 |][M:2/2][K:bass] F,8 | E,8 | F,8 | %57
 A,8 | _B,8 | G,8 | A,8 | E,8 | F,8 | D,8 | E,8 | F,8 |][M:2/2][K:alto] G,8 | C8 | B,8 | G,8 | C8 | %71
 E8 | D8 | G8 | E8 | C8 | D8 | B,8 | A,8 | G,8 |][M:2/2][K:tenor] G,8 | A,8 | G,8 | E,8 | E,8 | %85
 C,8 | G,8 | B,8 | C8 | A,8 | ^F,8 | G,8 | ^F,8 | G,8 |][M:2/2][K:alto] A,8 | C8 | B,8 | D8 | C8 | %99
 E8 | F8 | E8 | D8 | C8 | B,8 | A,8 |][M:2/2][K:tenor] A,8 | A,8 | G,8 | F,8 | E,8 | E,8 | D,8 | %113
 C,8 | G,8 | A,8 | ^G,8 | A,8 |][M:2/2][K:alto] D8 | F8 | E8 | D8 | G8 | F8 | A8 | G8 | F8 | E8 | %128
 D8 |][M:2/2][K:tenor] z4 D,4 | D4 A,4 | C4 A,4 | B,4 A,4 | G,4 B,4 | D4 E4 | F4 C4 | E4 B,4 | %137
 D4 D,4 | A,4 ^C4 | D8 |][M:2/2][K:alto] E8 | C8 | D8 | C8 | A,8 | A8 | G8 | E8 | F8 | E8 |] %150
[M:2/2][K:tenor] z4 E,4 | A,4 G,4 | F,4 D,4 | E,4 C,4 | F,4 C4 | F4 D4 | E4 D4 | C4 B,4 | A,4 D4 | %159
 E8 |][M:2/2] F,8 | G,8 | A,8 | F,8 | D,8 | E,8 | F,8 | C8 | A,8 | F,8 | G,8 | F,8 |] %172
[M:2/2][K:bass] z4 F,4 | E,4 C,4 | F,4 E,4 | D,4 C,4 | _B,,4 _B,4 | G,4 C4 | A,4 F,4 | E,4 C,4 | %180
 F,4 F,,4 | A,,4 D,4 | C,4 E,4 | F,8 |][M:2/2][K:alto] G,8 | C8 | B,8 | G,8 | C8 | E8 | D8 | G8 | %192
 E8 | C8 | D8 | B,8 | A,8 | G,8 |][M:2/2][K:tenor] z4 G,4 | E,4 F,4 | G,4 F,4 | E,4 D,4 | C,4 E,4 | %203
 C,4 C4 | B,4 A,4 | G,4 B,4 | C4 B,4 | A,4 G,4 | ^F,4 D,4 | G,4 B,,4 | D,4 ^F,4 | G,8 |] %212
[M:2/2][K:alto] A,8 | C8 | B,8 | C8 | E8 | F8 | E8 | D8 | C8 | B,8 | A,8 |] %223
[M:2/2][K:bass] z4 A,,4 | A,4 E,4 | G,4 E,4 | D,4 F,4 | A,4 B,4 | C4 C,4 | D,4 A,,4 | C,4 E,4 | %231
 F,4 G,4 | A,4 A,,4 | E,4 ^G,4 | A,8 |][M:2/2][K:alto] C8 | E8 | F8 | G8 | E8 | A8 | G8 | E8 | F8 | %244
 E8 | D8 | C8 |][M:2/2][K:tenor] z4 C,4 | C4 B,4 | A,4 D4 | B,4 G,4 | C4 B,4 | A,4 C4 | E4 D4 | %254
 C4 A,4 | D4 A,4 | C4 C,4 | G,4 B,4 | C8 |][M:2/2][K:alto] D8 | F8 | E8 | D8 | G8 | F8 | A8 | G8 | %267
 F8 | E8 | D8 |][M:2/2][K:tenor] D,2 E,2 F,2 G,2 | A,2 D,2 A,2 B,2 | C2 B,2 G,2 A,2 | %273
 B,2 A,2 G,2 F,2 | E,2 E2 B,2 C2 | D2 A,2 D,2 E,2 | F,2 G,2 A,2 B,2 | C2 D2 E2 C2 | D2 A,2 D,2 D2 | %279
 ^C2 A,2 B,2 C2 | D8 |][M:2/2][K:alto] E8 | C8 | D8 | C8 | A,8 | A8 | G8 | E8 | F8 | E8 |] %291
[M:2/2][K:tenor] E,2 F,2 G,2 E,2 | A,2 G,2 F,2 E,2 | D,2 E,2 F,2 G,2 | A,2 E,2 A,2 G,2 | %295
 F,2 E,2 D,2 E,2 | F,2 G,2 A,2 B,2 | C2 D2 E2 D2 | C2 C,2 C2 B,2 | A,2 D2 A,2 D2 | E8 |] %301
[M:2/2] F,8 | G,8 | A,8 | F,8 | D,8 | E,8 | F,8 | C8 | A,8 | F,8 | G,8 | F,8 |] %313
[M:2/2][K:bass] F,,2 F,2 E,2 D,2 | E,2 C,2 D,2 E,2 | F,2 E,2 D,2 C,2 | D,2 C,2 _B,,2 A,,2 | %317
 _B,,2 F,2 _B,2 A,2 | G,2 C,2 C2 _B,2 | A,2 G,2 F,2 D,2 | E,2 C,2 D,2 E,2 | F,2 E,2 D,2 C,2 | %322
 D,2 E,2 F,2 D,2 | E,2 C,2 D,2 E,2 | F,8 |][M:2/2][K:alto] D8 | F8 | E8 | D8 | G8 | F8 | A8 | G8 | %333
 F8 | E8 | D8 |][M:2/2][K:tenor] z4 D,4- | D,4 D4- | D4 C4- | C4 B,4- | B,4 E4- | E4 D4- | D4 F4- | %343
 F4 E4- | E4 D4- | D4 ^C4 | D8 |][M:2/2][K:alto] E8 | C8 | D8 | C8 | A,8 | A8 | G8 | E8 | F8 | %356
 E8 |][M:2/2][K:tenor] z4 E,4- | E,4 A,4- | A,4 G,4- | G,4 F,4- | F,4 D,4- | D,4 D4- | D4 C4- | %364
 C4 E4- | E4 D4 | E8 |][M:2/2] F,8 | G,8 | A,8 | F,8 | D,8 | E,8 | F,8 | C8 | A,8 | F,8 | G,8 | %378
 F,8 |][M:2/2][K:bass] z4 F,4- | F,4 E,4- | E,4 D,4- | D,4 _B,,4- | B,,4 G,,4- | G,,4 G,4- | %385
 G,4 F,4- | F,4 E,4- | E,4 D,4- | D,4 F,4- | F,4 E,4 | F,8 |][M:2/2][K:alto] D8 | F8 | E8 | D8 | %395
 G8 | F8 | A8 | G8 | F8 | E8 | D8 |][M:2/2][K:tenor] z4 D4- | D4 A,2 B,2 | C2 G,2 C4- | %405
 C2 B,A, B,2 A,2 | G,2 A,2 B,2 C2 | D2 A,2 D4- | D2 E2 F4- | F2 ED E4- | E2 A,2 D4- | D4 ^C4 | %412
 D8 |][M:2/2][K:alto] E8 | C8 | D8 | C8 | A,8 | A8 | G8 | E8 | F8 | E8 |][M:2/2][K:tenor] z4 E,4 | %424
 A,2 B,2 C4- | C2 B,A, B,2 G,2 | A,4 E,4 | F,2 D,2 F,4- | F,2 G,2 A,2 B,2 | C2 B,2 C4- | %430
 C2 D2 E4- | E4 D4 | E8 |][M:2/2] F,8 | G,8 | A,8 | F,8 | D,8 | E,8 | F,8 | C8 | A,8 | F,8 | G,8 | %444
 F,8 |][M:2/2][K:bass] z4 F,4- | F,2 E,D, C,2 _B,,2 | A,,2 G,,2 F,,4- | F,,2 A,,2 _B,,4- | %449
 B,,2 C,2 D,4- | D,4 C,2 _B,,2 | A,,4 F,4 | E,4 F,4- | F,2 E,2 D,4- | D,2 E,2 F,4- | F,4 E,4 | %456
 F,8 |][M:2/2][K:alto] G,8 | C8 | B,8 | G,8 | C8 | E8 | D8 | G8 | E8 | C8 | D8 | B,8 | A,8 | G,8 |] %471
[M:2/2][K:tenor] z4 G,4 | E,4 A,4- | A,4 G,2 F,2 | E,2 C,2 E,4- | E,4 A,4- | A,2 B,2 C4- | %477
 C4 B,2 A,2 | B,4 E2 D2 | C2 B,2 A,4- | A,2 B,2 C4- | C4 B,2 A,2 | G,2 D,2 G,4- | G,4 ^F,4 | G,8 |] %485
[M:2/2][K:alto] A,8 | C8 | B,8 | D8 | C8 | E8 | F8 | E8 | D8 | C8 | B,8 | A,8 |] %497
[M:2/2][K:tenor] z4 A,4- | A,2 G,2 E,2 F,2 | G,2 D,2 G,4- | G,2 A,2 B,4- | B,4 A,4- | %502
 A,2 B,2 C2 B,2 | A,4 D4- | D2 G,2 C4- | C2 B,A, B,4- | B,2 E,2 A,4- | A,4 ^G,4 | A,8 |] %509
[M:2/2][K:alto] C8 | D8 | F8 | E8 | G8 | F8 | E8 | D8 | C8 |][M:2/2][K:tenor] z4 C4- | C4 B,4 | %520
 A,4 D4- | D2 CB, C4- | C2 D2 E4- | E2 A,2 D4- | D2 C2 C4- | C4 B,4 | C8 |] %527

